X: 19
T: O'Sullivan's March (2)
R: jig
Z: J. Lee Othon based on Brian Hugh's
M: 6/8
L: 1/8
K: Gmaj
P: with swing
   D |: "G" GBA "D" AB/c/d | "Em" edB "D" AB/c/d      | "C" e2g     edB  |  "G" dBG "D" AGD    |
        "G" GBA "D" AB/c/d | "Em" edB "D" AB/c/d      | "C" e2g "G" dBG  |1 "D" AGF "G" G2D  :|2 "D" AGF "G" GB/c/d ||
|: "Em" e2e "D" edB        | "C" e2e "D" edB         | "G" d3 "D" d(3c/d/e/f |  "G" gdB "D" A2G  |
   "Am" cBc "D/F#" dcd | "C/B" e/f/gB "Am" A2B | "G" GED B2A | AGF GB/c/d        :|
% TO DO upload to The Session


